assets/image/twitter--oncard.svg

<svg width="43" height="43" viewBox="0 0 43 43" fill="none" xmlns="http://www.w3.org/2000/svg">
<rect width="41.9999" height="42" transform="translate(0.5 0.5)" fill="#5DCBE6"/>
<path d="M29.4441 17.4264C29.4568 17.604 29.4568 17.7817 29.4568 17.9594C29.4568 23.3781 25.3325 29.6218 17.7944 29.6218C15.4721 29.6218 13.3147 28.9492 11.5 27.7817C11.83 27.8198 12.1472 27.8325 12.4898 27.8325C14.4061 27.8325 16.17 27.1853 17.5787 26.0812C15.7766 26.0431 14.2665 24.8629 13.7462 23.2386C14 23.2766 14.2538 23.302 14.5203 23.302C14.8883 23.302 15.2564 23.2512 15.599 23.1624C13.7208 22.7817 12.3121 21.132 12.3121 19.1396V19.0888C12.8578 19.3934 13.4924 19.5838 14.1649 19.6091C13.0609 18.8731 12.3375 17.6167 12.3375 16.1954C12.3375 15.434 12.5405 14.736 12.8959 14.1269C14.9137 16.6142 17.9467 18.2385 21.3477 18.4162C21.2842 18.1117 21.2461 17.7944 21.2461 17.4772C21.2461 15.2183 23.0736 13.3782 25.3451 13.3782C26.5253 13.3782 27.5913 13.8731 28.34 14.6726C29.2664 14.4949 30.1547 14.1523 30.9416 13.6828C30.637 14.6346 29.9898 15.434 29.1395 15.9416C29.9644 15.8528 30.7639 15.6244 31.4999 15.3071C30.9416 16.1193 30.2436 16.8426 29.4441 17.4264Z" fill="white"/>
</svg>

<svg xmlns="http://www.w3.org/2000/svg" width="43" height="43" fill="none"><path fill="#5DCBE6" d="M.5.5h42v42H.5z"/><path fill="#fff" d="M29.444 17.426c.013.178.013.356.013.533 0 5.42-4.125 11.663-11.663 11.663-2.322 0-4.48-.673-6.294-1.84.33.038.647.05.99.05 1.916 0 3.68-.647 5.089-1.75a4.106 4.106 0 0 1-3.833-2.843c.254.038.508.063.774.063.368 0 .736-.05 1.079-.14a4.1 4.1 0 0 1-3.287-4.022v-.051c.546.304 1.18.495 1.853.52a4.096 4.096 0 0 1-1.827-3.414c0-.761.203-1.459.558-2.068a11.651 11.651 0 0 0 8.452 4.29 4.622 4.622 0 0 1-.102-.94 4.097 4.097 0 0 1 4.1-4.099c1.18 0 2.245.495 2.994 1.295a8.072 8.072 0 0 0 2.602-.99 4.088 4.088 0 0 1-1.802 2.259 8.215 8.215 0 0 0 2.36-.635 8.81 8.81 0 0 1-2.056 2.12Z"/></svg>
